epam-assets/icon-sources/18/editor-table_merge_cells.svg

<svg xmlns="http://www.w3.org/2000/svg" width="18" height="18" fill="none" viewBox="0 0 18 18">
  <path fill="#6C6F80" fill-rule="evenodd" d="M3.75 7.5h-1.5V3h6v1.5h-4.5v3Zm10.5 6h-4.5V15h6v-4.5h-1.5v3Zm-10.5 0v-3h-1.5V15h6v-1.5h-4.5Zm12-10.5h-6v1.5h4.5v3h1.5V3ZM6 9.75v1.5L8.25 9 6 6.75v1.5H2.25v1.5H6Zm6-1.5v-1.5L9.75 9 12 11.25v-1.5h3.75v-1.5H12Z" clip-rule="evenodd"/>
</svg>

<svg width="18" height="18" viewBox="0 0 18 18" fill="none" xmlns="http://www.w3.org/2000/svg">
<g id="18/editor-table_merge_cells">
<path id="icon" fill-rule="evenodd" clip-rule="evenodd" d="M3.75 7.5H2.25V3H8.25V4.5H3.75V7.5ZM14.25 13.5H9.75V15H15.75V10.5H14.25V13.5ZM3.75 13.5V10.5H2.25V15H8.25V13.5H3.75ZM15.75 3H9.75V4.5H14.25V7.5H15.75V3ZM6 9.75V11.25L8.25 9L6 6.75V8.25H2.25V9.75H6ZM12 8.25V6.75L9.75 9L12 11.25V9.75H15.75V8.25H12Z" fill="#6C6F80"/>
</g>
</svg>
